X:18
T:No 17 Pollonoise
S:efter Carl Gustaf Sundblad
O:Godegård, Östergötland 
R:Polonäs
B:Carl Gustaf Sundblads notbok
B:http://www.smus.se/earkiv/fmk/browselarge.php?lang=sw&katalogid=M+27&bildnr=00009
B:http://www.smus.se/earkiv/fmk/browselarge.php?lang=sw&katalogid=%C3%96g+20&bildnr=00019
M:3/4
L:1/8
K:D
fe/2f/2 fe/2g/2 fd | ffddAA | fe/2f/2 fe/2g/2 fd | e/2a/2e/2c/2 d2 D2 ::
f2 dfdf | g2 egeg | f2 dfdf | g2 egeg | fe/2f/2 fe/2g/2 af | e/2a/2e/2c/2 d2 D2 :|]

